X: 24
T:Essequibo River
R:Hornpipe
C:Traditional
S:Stan Hugill
N:"Essequibo River is the king of rivers all
N:Buddy tanana,we are somebody oh
N:Essequibo River is the king of rivers all
N:Buddy tanana,we are somebody oh
N:Somebody oh, Johnny, somebody oh
N:Buddy tanana,we are somebody oh
N:Somebody oh, Johnny, somebody oh
N:Buddy tanana,we are somebody oh"
B:Shanties from the Seven Seas
M:4/4
L:1/8
K:D
"D"DDDD AAAA | "G"BAGB "D"A4 | "D"DDDD A2 AF | "A"E2 FE "D"D4 |
"D"DDDD AAAA | "G"BAGB "D"A4 | "D"DDDD A2 AF | "A"E2 FE "D"D4 :||:
"D"d2 dB d2 dB | "G"d2 dB "D"A4 |  "D"DDDD A2 AF | "A"E2 FE "D"D4 |
"D"d2 dB d2 dB | "G"d2 dB "D"A4 |  "D"DDDD A2 AF | "A"E2 FE "D"D4 ||
W:
W: Essequibo River is the king o' rivers all
W: Buddy tanana, we are somebody, oh
W:
W: Chorus:
W: Somebody oh, Johnny, somebody oh
W: Buddy tanana, we are somebody, oh
W:
W: Essequibo capn's is the kings o' capn's all
W:
W: Essequibo sailors is the kings o' sailors all
W:
W: Essequibo maidens is the queens o' maidens all
